public/svgs/icons/sail.svg

<svg fill="none" height="79" viewBox="0 0 103 79" width="103" xmlns="http://www.w3.org/2000/svg"><g fill="#bad8db"><path d="m88.64 47.0601h-33.64v-44.68998zm-32.14-1.5h29.13l-29.13-38.70998z"/><path d="m36.2803 45.5601h53.11v1.5h-53.11z"/><path d="m56.5007 47.0599h-19.24l19.24-37.66zm-16.79-1.5h15.29v-29.92z"/><path d="m37.7203 63.1c-.4583-.7726-.7065-1.6517-.72-2.55v-5.63h50.4l-3.4 6.24c-.5104.6725-1.0902 1.2893-1.73 1.84.75 0 1.44 0 2.09.06.2991-.3168.5795-.6507.84-1l4-7.24c.0764-.1402.1149-.298.1118-.4577-.003-.1597-.0476-.3158-.1293-.453-.0818-.1373-.1978-.2509-.3368-.3296-.1389-.0788-.296-.12-.4557-.1197h-52.86v7.13c-.0016.9515.1996 1.8924.59 2.76.5-.12 1.03-.19 1.6-.25z"/><path d="m61.6202 66.6601c2.4274.0446 4.8496-.2414 7.2-.85h-14.41c2.3537.6086 4.7792.8945 7.21.85z"/></g><path d="m102.7 67.4101c-3.6022.0785-7.1831-.5677-10.5304-1.9-3.1735-1.285-6.5772-1.9045-10-1.82-3.4228-.0845-6.8265.535-10 1.82-3.3437 1.3326-6.9214 1.9788-10.52 1.9-3.6018.0785-7.1827-.5677-10.53-1.9-3.1735-1.285-6.5772-1.9045-10-1.82-3.4227-.0828-6.826.5366-10 1.82-3.3434 1.3337-6.9213 1.9798-10.52 1.9v-1.5c3.4215.0801 6.8236-.5357 10-1.81 3.341-1.3429 6.9201-1.9928 10.52-1.91 3.5865-.0773 7.1514.5724 10.48 1.91 3.1764 1.2743 6.5785 1.8901 10 1.81 3.4217.0829 6.8244-.533 10-1.81 3.3449-1.3416 6.927-1.9913 10.53-1.91 3.6098-.0857 7.1994.5641 10.55 1.91 3.1761 1.2754 6.5784 1.8912 10.0004 1.81z" fill="#ed6a5e"/><path d="m61.62 78.32c-3.6022.0837-7.1842-.5626-10.53-1.9-3.1756-1.277-6.5783-1.8929-10-1.81-3.4215-.0801-6.8236.5357-10 1.81-3.342 1.3385-6.9209 1.9848-10.52 1.9-3.6158.0916-7.2124-.5549-10.57-1.9-3.17637-1.2743-6.57849-1.8901-10-1.81v-1.5c3.59802-.083 7.17588.5598 10.52 1.89 3.1764 1.2743 6.5785 1.8901 10 1.81 3.4217.0829 6.8244-.533 10-1.81 3.3473-1.3323 6.9282-1.9784 10.53-1.9 3.6088-.0839 7.1973.5624 10.55 1.9 3.1764 1.2743 6.5785 1.8901 10 1.81z" fill="#ed6a5e"/><path d="m55 0h1.5v54.51h-1.5z" fill="#bad8db"/></svg>

<svg width="103" height="79" viewBox="0 0 103 79" fill="none" xmlns="http://www.w3.org/2000/svg">
<path d="M88.64 47.0601H55V2.37012L88.64 47.0601ZM56.5 45.5601H85.63L56.5 6.85012V45.5601Z" fill="#BAD8DB"/>
<path d="M36.2803 45.5601H89.3903V47.0601H36.2803V45.5601Z" fill="#BAD8DB"/>
<path d="M56.5007 47.0599H37.2607L56.5007 9.3999V47.0599ZM39.7107 45.5599H55.0007V15.6399L39.7107 45.5599Z" fill="#BAD8DB"/>
<path d="M37.7203 63.1C37.262 62.3274 37.0138 61.4483 37.0003 60.55V54.92H87.4003L84.0003 61.16C83.4899 61.8325 82.9101 62.4493 82.2703 63C83.0203 63 83.7103 63 84.3603 63.06C84.6594 62.7432 84.9398 62.4093 85.2003 62.06L89.2003 54.82C89.2767 54.6798 89.3152 54.522 89.3121 54.3623C89.3091 54.2026 89.2645 54.0465 89.1828 53.9093C89.101 53.772 88.985 53.6584 88.846 53.5797C88.7071 53.5009 88.55 53.4597 88.3903 53.46H35.5303V60.59C35.5287 61.5415 35.7299 62.4824 36.1203 63.35C36.6203 63.23 37.1503 63.16 37.7203 63.1Z" fill="#BAD8DB"/>
<path d="M61.6202 66.6601C64.0476 66.7047 66.4698 66.4187 68.8202 65.8101H54.4102C56.7639 66.4187 59.1894 66.7046 61.6202 66.6601Z" fill="#BAD8DB"/>
<path d="M102.7 67.4101C99.0978 67.4886 95.5169 66.8424 92.1696 65.5101C88.9961 64.2251 85.5924 63.6056 82.1696 63.6901C78.7468 63.6056 75.3431 64.2251 72.1696 65.5101C68.8259 66.8427 65.2482 67.4889 61.6496 67.4101C58.0478 67.4886 54.4669 66.8424 51.1196 65.5101C47.9461 64.2251 44.5424 63.6056 41.1196 63.6901C37.6969 63.6073 34.2936 64.2267 31.1196 65.5101C27.7762 66.8438 24.1983 67.4899 20.5996 67.4101V65.9101C24.0211 65.9902 27.4232 65.3744 30.5996 64.1001C33.9406 62.7572 37.5197 62.1073 41.1196 62.1901C44.7061 62.1128 48.271 62.7625 51.5996 64.1001C54.776 65.3744 58.1781 65.9902 61.5996 65.9101C65.0213 65.993 68.424 65.3771 71.5996 64.1001C74.9445 62.7585 78.5266 62.1088 82.1296 62.1901C85.7394 62.1044 89.329 62.7542 92.6796 64.1001C95.8557 65.3755 99.258 65.9913 102.68 65.9101L102.7 67.4101Z" fill="#ED6A5E"/>
<path d="M61.62 78.32C58.0178 78.4037 54.4358 77.7574 51.09 76.42C47.9144 75.143 44.5117 74.5271 41.09 74.61C37.6685 74.5299 34.2664 75.1457 31.09 76.42C27.748 77.7585 24.1691 78.4048 20.57 78.32C16.9542 78.4116 13.3576 77.7651 10 76.42C6.82363 75.1457 3.42151 74.5299 0 74.61V73.11C3.59802 73.027 7.17588 73.6698 10.52 75C13.6964 76.2743 17.0985 76.8901 20.52 76.81C23.9417 76.8929 27.3444 76.277 30.52 75C33.8673 73.6677 37.4482 73.0216 41.05 73.1C44.6588 73.0161 48.2473 73.6624 51.6 75C54.7764 76.2743 58.1785 76.8901 61.6 76.81L61.62 78.32Z" fill="#ED6A5E"/>
<path d="M55 0H56.5V54.51H55V0Z" fill="#BAD8DB"/>
</svg>
